assets/images/intro_next.svg

<svg fill="none" height="81" viewBox="0 0 80 81" width="80" xmlns="http://www.w3.org/2000/svg"><g clip-rule="evenodd" fill="#fff" fill-rule="evenodd"><path d="m38.1917 57.2541c-.2328-.2342-.4175-.5124-.5435-.8187-.1261-.3064-.1909-.6348-.1909-.9664s.0648-.66.1909-.9664c.126-.3063.3107-.5845.5435-.8187l13.235-13.3431-13.235-13.3431c-.4694-.4734-.7331-1.1156-.7331-1.7851 0-.6696.2637-1.3117.7331-1.7851.4695-.4735 1.1062-.7395 1.77-.7395.6639 0 1.3006.266 1.77.7395l15 15.1282c.2329.2342.4176.5124.5436.8187.126.3064.1909.6347.1909.9664 0 .3316-.0649.66-.1909.9664-.126.3063-.3107.5845-.5436.8187l-15 15.1282c-.2322.2348-.5081.4211-.8118.5482s-.6293.1926-.9582.1926c-.3288 0-.6544-.0655-.9581-.1926-.3038-.1271-.5796-.3134-.8119-.5482z"/><path d="m22.5 40.3417c0-.6687.2634-1.3101.7322-1.7829.4689-.4729 1.1048-.7385 1.7678-.7385h25c.663 0 1.2989.2656 1.7678.7385.4688.4728.7322 1.1142.7322 1.7829s-.2634 1.31-.7322 1.7828c-.4689.4729-1.1048.7385-1.7678.7385h-25c-.663 0-1.2989-.2656-1.7678-.7385-.4688-.4728-.7322-1.1141-.7322-1.7828z"/></g></svg>

<svg width="80" height="81" viewBox="0 0 80 81" fill="none" xmlns="http://www.w3.org/2000/svg"><path fill-rule="evenodd" clip-rule="evenodd" d="M38.1917 57.2541C37.9589 57.0199 37.7742 56.7417 37.6482 56.4354C37.5221 56.129 37.4573 55.8006 37.4573 55.469C37.4573 55.1374 37.5221 54.809 37.6482 54.5026C37.7742 54.1963 37.9589 53.9181 38.1917 53.6839L51.4267 40.3408L38.1917 26.9977C37.7223 26.5243 37.4586 25.8821 37.4586 25.2126C37.4586 24.543 37.7223 23.9009 38.1917 23.4275C38.6612 22.954 39.2979 22.688 39.9617 22.688C40.6256 22.688 41.2623 22.954 41.7317 23.4275L56.7317 38.5557C56.9646 38.7899 57.1493 39.0681 57.2753 39.3744C57.4013 39.6808 57.4662 40.0091 57.4662 40.3408C57.4662 40.6724 57.4013 41.0008 57.2753 41.3072C57.1493 41.6135 56.9646 41.8917 56.7317 42.1259L41.7317 57.2541C41.4995 57.4889 41.2236 57.6752 40.9199 57.8023C40.6162 57.9294 40.2906 57.9949 39.9617 57.9949C39.6329 57.9949 39.3073 57.9294 39.0036 57.8023C38.6998 57.6752 38.424 57.4889 38.1917 57.2541Z" fill="#fff"/><path fill-rule="evenodd" clip-rule="evenodd" d="M22.5 40.3417C22.5 39.673 22.7634 39.0316 23.2322 38.5588C23.7011 38.0859 24.337 37.8203 25 37.8203L50 37.8203C50.663 37.8203 51.2989 38.0859 51.7678 38.5588C52.2366 39.0316 52.5 39.673 52.5 40.3417C52.5 41.0104 52.2366 41.6517 51.7678 42.1245C51.2989 42.5974 50.663 42.863 50 42.863L25 42.863C24.337 42.863 23.7011 42.5974 23.2322 42.1245C22.7634 41.6517 22.5 41.0104 22.5 40.3417Z" fill="#fff"/></svg>
